images/coprorate.svg

<svg width="65" height="64" viewBox="0 0 65 64" fill="none" xmlns="http://www.w3.org/2000/svg">
<g clip-path="url(#clip0_22728_11388)">
<path d="M61.1932 37.7273C60.5057 37.4426 59.782 37.2982 59.0421 37.2982C57.4104 37.2982 55.9031 37.9946 54.8565 39.1615L53.6365 38.6562L50.1564 37.2147C50.6502 35.5616 50.9167 33.8113 50.9167 31.9998C50.9167 30.1883 50.6501 28.4381 50.1564 26.7849L53.6365 25.3435L54.8565 24.8381C55.9031 26.0051 57.4104 26.7014 59.0421 26.7014C59.782 26.7014 60.5057 26.5571 61.1932 26.2722C64.0586 25.0852 65.4243 21.7883 64.2373 18.9227C63.3633 16.8128 61.3229 15.4493 59.0391 15.4493C58.2992 15.4493 57.5755 15.5937 56.888 15.8786C54.6297 16.814 53.3042 19.0598 53.4242 21.3722L52.1971 21.8805L48.7181 23.3215C47.028 20.208 44.4585 17.6383 41.345 15.9483L42.786 12.4694L43.2938 11.2436C43.3921 11.2487 43.4908 11.2517 43.5898 11.2517C45.8736 11.2517 47.914 9.88836 48.7881 7.77836C49.975 4.91287 48.6094 1.61587 45.7439 0.428874C45.0563 0.144375 44.3326 0 43.5928 0C41.3089 0 39.2685 1.36337 38.3944 3.47337C37.459 5.73161 38.1098 8.25698 39.8298 9.80723L39.3233 11.0301L37.8818 14.5102C36.2286 14.0165 34.4784 13.7498 32.6669 13.7498C30.8554 13.7498 29.1052 14.0165 27.452 14.5102L26.0105 11.0301L25.504 9.80723C27.224 8.25698 27.8748 5.73161 26.9394 3.47324C26.0653 1.36337 24.0247 0 21.7409 0C21.0011 0 20.2773 0.144375 19.5898 0.429249C16.7244 1.61625 15.3587 4.91312 16.5457 7.77874C17.4197 9.88861 19.4602 11.2521 21.7439 11.2521C21.8429 11.2521 21.9416 11.2491 22.0399 11.244L22.5477 12.4697L23.9887 15.9487C20.8752 17.6388 18.3056 20.2083 16.6156 23.3218L13.1366 21.8808L11.9094 21.3726C12.0294 19.0602 10.7039 16.8143 8.4457 15.8788C7.7582 15.5941 7.03445 15.4497 6.29458 15.4497C4.01071 15.4497 1.97034 16.8131 1.09621 18.9231C-0.0906587 21.7886 1.27496 25.0856 4.14046 26.2726C4.82796 26.5573 5.55171 26.7017 6.29158 26.7017C7.92333 26.7017 9.43057 26.0053 10.4772 24.8383L11.6972 25.3437L15.1773 26.7852C14.6834 28.4383 14.4169 30.1886 14.4169 32.0001C14.4169 33.8116 14.6836 35.5618 15.1773 37.2149L11.6971 38.6562L10.4771 39.1615C9.43045 37.9946 7.9232 37.2982 6.29145 37.2982C5.55158 37.2982 4.82783 37.4426 4.14033 37.7274C1.27496 38.9144 -0.0907838 42.2113 1.09621 45.0769C1.97021 47.1868 4.01071 48.5503 6.29445 48.5503C7.03433 48.5503 7.75808 48.4059 8.44558 48.121C10.7038 47.1857 12.0293 44.9398 11.9093 42.6274L13.1364 42.1192L16.6154 40.6782C18.3056 43.7917 20.8751 46.3613 23.9885 48.0513L22.5476 51.5303L22.0398 52.756C21.9414 52.7509 21.8428 52.7479 21.7438 52.7479C19.4599 52.7479 17.4196 54.1113 16.5454 56.2213C15.3586 59.0868 16.7242 62.3838 19.5897 63.5708C20.2772 63.8555 21.0009 63.9999 21.7408 63.9999C24.0247 63.9999 26.065 62.6365 26.9392 60.5265C27.8745 58.2683 27.2238 55.7429 25.5038 54.1926L26.0103 52.9698L27.4518 49.4897C29.1049 49.9834 30.8552 50.25 32.6667 50.25C34.4781 50.25 36.2284 49.9834 37.8815 49.4897L39.323 52.9698L39.8295 54.1926C38.1095 55.7429 37.4588 58.2683 38.3941 60.5266C39.2681 62.6365 41.3086 64 43.5924 64C44.3323 64 45.056 63.8556 45.7435 63.5708C48.6089 62.3838 49.9746 59.0869 48.7876 56.2213C47.9136 54.1114 45.8731 52.7479 43.5894 52.7479C43.4904 52.7479 43.3918 52.7509 43.2934 52.756L42.7856 51.5303L41.3446 48.0513C44.4581 46.3612 47.0278 43.7917 48.7178 40.6782L52.1967 42.1192L53.4239 42.6274C53.3039 44.9398 54.6294 47.1857 56.8876 48.1212C57.5751 48.4059 58.2989 48.5503 59.0387 48.5503C61.3226 48.5503 63.363 47.1869 64.2371 45.0769C65.4243 42.2113 64.0588 38.9143 61.1932 37.7273ZM32.6669 46.4998C24.6717 46.4998 18.1669 39.995 18.1669 31.9998C18.1669 24.0046 24.6717 17.4998 32.6669 17.4998C40.6621 17.4998 47.1669 24.0046 47.1669 31.9998C47.1669 39.995 40.662 46.4998 32.6669 46.4998Z" fill="black"/>
<path d="M61.1932 37.7273C60.5057 37.4426 59.782 37.2982 59.0421 37.2982C57.4104 37.2982 55.9031 37.9946 54.8565 39.1615L53.6365 38.6562L50.1564 37.2147C50.6502 35.5616 50.9167 33.8113 50.9167 31.9998C50.9167 30.1883 50.6501 28.4381 50.1564 26.7849L53.6365 25.3435L54.8565 24.8381C55.9031 26.0051 57.4104 26.7014 59.0421 26.7014C59.782 26.7014 60.5057 26.5571 61.1932 26.2722C64.0586 25.0852 65.4243 21.7883 64.2373 18.9227C63.3633 16.8128 61.3229 15.4493 59.0391 15.4493C58.2992 15.4493 57.5755 15.5937 56.888 15.8786C54.6297 16.814 53.3042 19.0598 53.4242 21.3722L52.1971 21.8805L48.7181 23.3215C47.028 20.208 44.4585 17.6383 41.345 15.9483L42.786 12.4694L43.2938 11.2436C43.3921 11.2487 43.4908 11.2517 43.5898 11.2517C45.8736 11.2517 47.914 9.88836 48.7881 7.77836C49.975 4.91287 48.6094 1.61587 45.7439 0.428874C45.0563 0.144375 44.3326 0 43.5928 0C41.3089 0 39.2685 1.36337 38.3944 3.47337C37.459 5.73161 38.1098 8.25698 39.8298 9.80723L39.3233 11.0301L37.8818 14.5102C36.2286 14.0165 34.4784 13.7498 32.6669 13.7498C30.8554 13.7498 29.1052 14.0165 27.452 14.5102L26.0105 11.0301L25.504 9.80723C27.224 8.25698 27.8748 5.73161 26.9394 3.47324C26.0653 1.36337 24.0247 0 21.7409 0C21.0011 0 20.2773 0.144375 19.5898 0.429249C16.7244 1.61625 15.3587 4.91312 16.5457 7.77874C17.4197 9.88861 19.4602 11.2521 21.7439 11.2521C21.8429 11.2521 21.9416 11.2491 22.0399 11.244L22.5477 12.4697L23.9887 15.9487C20.8752 17.6388 18.3056 20.2083 16.6156 23.3218L13.1366 21.8808L11.9094 21.3726C12.0294 19.0602 10.7039 16.8143 8.4457 15.8788C7.7582 15.5941 7.03445 15.4497 6.29458 15.4497C4.01071 15.4497 1.97034 16.8131 1.09621 18.9231C-0.0906587 21.7886 1.27496 25.0856 4.14046 26.2726C4.82796 26.5573 5.55171 26.7017 6.29158 26.7017C7.92333 26.7017 9.43057 26.0053 10.4772 24.8383L11.6972 25.3437L15.1773 26.7852C14.6834 28.4383 14.4169 30.1886 14.4169 32.0001C14.4169 33.8116 14.6836 35.5618 15.1773 37.2149L11.6971 38.6562L10.4771 39.1615C9.43045 37.9946 7.9232 37.2982 6.29145 37.2982C5.55158 37.2982 4.82783 37.4426 4.14033 37.7274C1.27496 38.9144 -0.0907838 42.2113 1.09621 45.0769C1.97021 47.1868 4.01071 48.5503 6.29445 48.5503C7.03433 48.5503 7.75808 48.4059 8.44558 48.121C10.7038 47.1857 12.0293 44.9398 11.9093 42.6274L13.1364 42.1192L16.6154 40.6782C18.3056 43.7917 20.8751 46.3613 23.9885 48.0513L22.5476 51.5303L22.0398 52.756C21.9414 52.7509 21.8428 52.7479 21.7438 52.7479C19.4599 52.7479 17.4196 54.1113 16.5454 56.2213C15.3586 59.0868 16.7242 62.3838 19.5897 63.5708C20.2772 63.8555 21.0009 63.9999 21.7408 63.9999C24.0247 63.9999 26.065 62.6365 26.9392 60.5265C27.8745 58.2683 27.2238 55.7429 25.5038 54.1926L26.0103 52.9698L27.4518 49.4897C29.1049 49.9834 30.8552 50.25 32.6667 50.25C34.4781 50.25 36.2284 49.9834 37.8815 49.4897L39.323 52.9698L39.8295 54.1926C38.1095 55.7429 37.4588 58.2683 38.3941 60.5266C39.2681 62.6365 41.3086 64 43.5924 64C44.3323 64 45.056 63.8556 45.7435 63.5708C48.6089 62.3838 49.9746 59.0869 48.7876 56.2213C47.9136 54.1114 45.8731 52.7479 43.5894 52.7479C43.4904 52.7479 43.3918 52.7509 43.2934 52.756L42.7856 51.5303L41.3446 48.0513C44.4581 46.3612 47.0278 43.7917 48.7178 40.6782L52.1967 42.1192L53.4239 42.6274C53.3039 44.9398 54.6294 47.1857 56.8876 48.1212C57.5751 48.4059 58.2989 48.5503 59.0387 48.5503C61.3226 48.5503 63.363 47.1869 64.2371 45.0769C65.4243 42.2113 64.0588 38.9143 61.1932 37.7273ZM32.6669 46.4998C24.6717 46.4998 18.1669 39.995 18.1669 31.9998C18.1669 24.0046 24.6717 17.4998 32.6669 17.4998C40.6621 17.4998 47.1669 24.0046 47.1669 31.9998C47.1669 39.995 40.662 46.4998 32.6669 46.4998Z" fill="url(#paint0_linear_22728_11388)"/>
<path d="M32.6667 21.25C26.7392 21.25 21.9167 26.0725 21.9167 32C21.9167 37.9275 26.7392 42.75 32.6667 42.75C38.5942 42.75 43.4167 37.9275 43.4167 32C43.4167 26.0725 38.5942 21.25 32.6667 21.25ZM34.5417 36.125H30.7917V27.875H34.5417V36.125Z" fill="black"/>
<path d="M32.6667 21.25C26.7392 21.25 21.9167 26.0725 21.9167 32C21.9167 37.9275 26.7392 42.75 32.6667 42.75C38.5942 42.75 43.4167 37.9275 43.4167 32C43.4167 26.0725 38.5942 21.25 32.6667 21.25ZM34.5417 36.125H30.7917V27.875H34.5417V36.125Z" fill="url(#paint1_linear_22728_11388)"/>
</g>
<defs>
<linearGradient id="paint0_linear_22728_11388" x1="32.6668" y1="0" x2="32.6668" y2="64" gradientUnits="userSpaceOnUse">
<stop stop-color="#EF8080"/>
<stop offset="1" stop-color="#F0145A"/>
</linearGradient>
<linearGradient id="paint1_linear_22728_11388" x1="32.6667" y1="21.25" x2="32.6667" y2="42.75" gradientUnits="userSpaceOnUse">
<stop stop-color="#EF8080"/>
<stop offset="1" stop-color="#F0145A"/>
</linearGradient>
<clipPath id="clip0_22728_11388">
<rect width="64" height="64" fill="white" transform="translate(0.666748)"/>
</clipPath>
</defs>
</svg>

<svg xmlns="http://www.w3.org/2000/svg" width="65" height="64" fill="none"><g clip-path="url(#a)"><path fill="#000" d="M61.193 37.727a5.595 5.595 0 0 0-2.15-.429 5.61 5.61 0 0 0-4.187 1.863l-1.22-.505-3.48-1.441c.494-1.653.76-3.404.76-5.215 0-1.812-.266-3.562-.76-5.215l3.48-1.442 1.22-.505a5.61 5.61 0 0 0 4.186 1.863 5.631 5.631 0 0 0 5.195-7.779 5.61 5.61 0 0 0-5.198-3.473 5.634 5.634 0 0 0-5.615 5.923l-1.227.509-3.479 1.44a18.381 18.381 0 0 0-7.373-7.373l1.441-3.479.508-1.225a5.61 5.61 0 0 0 5.494-3.465A5.632 5.632 0 0 0 43.593 0a5.61 5.61 0 0 0-5.199 3.473 5.634 5.634 0 0 0 1.436 6.334l-.507 1.223-1.441 3.48a18.197 18.197 0 0 0-5.215-.76c-1.812 0-3.562.267-5.215.76l-1.442-3.48-.506-1.223a5.634 5.634 0 0 0 1.435-6.334A5.61 5.61 0 0 0 21.741 0a5.631 5.631 0 0 0-5.195 7.779 5.61 5.61 0 0 0 5.494 3.465l.508 1.226 1.44 3.479a18.38 18.38 0 0 0-7.372 7.373l-3.48-1.441-1.227-.508a5.634 5.634 0 0 0-3.463-5.494 5.595 5.595 0 0 0-2.151-.43 5.61 5.61 0 0 0-5.199 3.474 5.632 5.632 0 0 0 5.196 7.779 5.61 5.61 0 0 0 4.185-1.864l1.22.506 3.48 1.441a18.19 18.19 0 0 0-.76 5.215c0 1.812.267 3.562.76 5.215l-3.48 1.441-1.22.505a5.61 5.61 0 0 0-4.186-1.863 5.632 5.632 0 0 0-5.195 7.779 5.61 5.61 0 0 0 5.198 3.473c.74 0 1.464-.144 2.152-.429a5.634 5.634 0 0 0 3.463-5.494l1.227-.508 3.48-1.44a18.382 18.382 0 0 0 7.372 7.372l-1.44 3.48-.508 1.225a5.61 5.61 0 0 0-5.494 3.465A5.632 5.632 0 0 0 21.74 64a5.61 5.61 0 0 0 5.198-3.474 5.634 5.634 0 0 0-1.435-6.333l.506-1.223 1.442-3.48c1.653.493 3.403.76 5.215.76 1.811 0 3.561-.267 5.215-.76l1.441 3.48.507 1.223a5.634 5.634 0 0 0-1.436 6.334A5.61 5.61 0 0 0 43.592 64a5.631 5.631 0 0 0 5.195-7.779 5.61 5.61 0 0 0-5.494-3.465l-.507-1.226-1.441-3.479a18.381 18.381 0 0 0 7.373-7.373l3.479 1.441 1.227.508a5.634 5.634 0 0 0 3.464 5.494c.687.285 1.41.43 2.15.43a5.61 5.61 0 0 0 5.2-3.474 5.631 5.631 0 0 0-3.045-7.35ZM32.667 46.5c-7.995 0-14.5-6.505-14.5-14.5s6.505-14.5 14.5-14.5 14.5 6.505 14.5 14.5-6.505 14.5-14.5 14.5Z"/><path fill="url(#b)" d="M61.193 37.727a5.595 5.595 0 0 0-2.15-.429 5.61 5.61 0 0 0-4.187 1.863l-1.22-.505-3.48-1.441c.494-1.653.76-3.404.76-5.215 0-1.812-.266-3.562-.76-5.215l3.48-1.442 1.22-.505a5.61 5.61 0 0 0 4.186 1.863 5.631 5.631 0 0 0 5.195-7.779 5.61 5.61 0 0 0-5.198-3.473 5.634 5.634 0 0 0-5.615 5.923l-1.227.509-3.479 1.44a18.381 18.381 0 0 0-7.373-7.373l1.441-3.479.508-1.225a5.61 5.61 0 0 0 5.494-3.465A5.632 5.632 0 0 0 43.593 0a5.61 5.61 0 0 0-5.199 3.473 5.634 5.634 0 0 0 1.436 6.334l-.507 1.223-1.441 3.48a18.197 18.197 0 0 0-5.215-.76c-1.812 0-3.562.267-5.215.76l-1.442-3.48-.506-1.223a5.634 5.634 0 0 0 1.435-6.334A5.61 5.61 0 0 0 21.741 0a5.631 5.631 0 0 0-5.195 7.779 5.61 5.61 0 0 0 5.494 3.465l.508 1.226 1.44 3.479a18.38 18.38 0 0 0-7.372 7.373l-3.48-1.441-1.227-.508a5.634 5.634 0 0 0-3.463-5.494 5.595 5.595 0 0 0-2.151-.43 5.61 5.61 0 0 0-5.199 3.474 5.632 5.632 0 0 0 5.196 7.779 5.61 5.61 0 0 0 4.185-1.864l1.22.506 3.48 1.441a18.19 18.19 0 0 0-.76 5.215c0 1.812.267 3.562.76 5.215l-3.48 1.441-1.22.505a5.61 5.61 0 0 0-4.186-1.863 5.632 5.632 0 0 0-5.195 7.779 5.61 5.61 0 0 0 5.198 3.473c.74 0 1.464-.144 2.152-.429a5.634 5.634 0 0 0 3.463-5.494l1.227-.508 3.48-1.44a18.382 18.382 0 0 0 7.372 7.372l-1.44 3.48-.508 1.225a5.61 5.61 0 0 0-5.494 3.465A5.632 5.632 0 0 0 21.74 64a5.61 5.61 0 0 0 5.198-3.474 5.634 5.634 0 0 0-1.435-6.333l.506-1.223 1.442-3.48c1.653.493 3.403.76 5.215.76 1.811 0 3.561-.267 5.215-.76l1.441 3.48.507 1.223a5.634 5.634 0 0 0-1.436 6.334A5.61 5.61 0 0 0 43.592 64a5.631 5.631 0 0 0 5.195-7.779 5.61 5.61 0 0 0-5.494-3.465l-.507-1.226-1.441-3.479a18.381 18.381 0 0 0 7.373-7.373l3.479 1.441 1.227.508a5.634 5.634 0 0 0 3.464 5.494c.687.285 1.41.43 2.15.43a5.61 5.61 0 0 0 5.2-3.474 5.631 5.631 0 0 0-3.045-7.35ZM32.667 46.5c-7.995 0-14.5-6.505-14.5-14.5s6.505-14.5 14.5-14.5 14.5 6.505 14.5 14.5-6.505 14.5-14.5 14.5Z"/><path fill="#000" d="M32.667 21.25c-5.928 0-10.75 4.823-10.75 10.75 0 5.928 4.822 10.75 10.75 10.75 5.927 0 10.75-4.822 10.75-10.75 0-5.927-4.823-10.75-10.75-10.75Zm1.875 14.875h-3.75v-8.25h3.75v8.25Z"/><path fill="url(#c)" d="M32.667 21.25c-5.928 0-10.75 4.823-10.75 10.75 0 5.928 4.822 10.75 10.75 10.75 5.927 0 10.75-4.822 10.75-10.75 0-5.927-4.823-10.75-10.75-10.75Zm1.875 14.875h-3.75v-8.25h3.75v8.25Z"/></g><defs><linearGradient id="b" x1="32.667" x2="32.667" y1="0" y2="64" gradientUnits="userSpaceOnUse"><stop stop-color="#EF8080"/><stop offset="1" stop-color="#F0145A"/></linearGradient><linearGradient id="c" x1="32.667" x2="32.667" y1="21.25" y2="42.75" gradientUnits="userSpaceOnUse"><stop stop-color="#EF8080"/><stop offset="1" stop-color="#F0145A"/></linearGradient><clipPath id="a"><path fill="#fff" d="M.667 0h64v64h-64z"/></clipPath></defs></svg>
